X:225
T: Say No More
C: Mark Simos
M:C|
K:C
|:ag|"C"ecag ecag|(3ege c2c2 Bc |"G"dedc BGAB|"C"cdef "G"g2 ag|
"C"ecag ecag|e(c c)d c2 Bc |"G"dedc BGAB|"C"c6:|
|:AB|"Am"c2B2AE3|"F"F6AB|"Am"c2B2AE3|"F"F4"E7"E4|
"Am"cABc AGEG|"F"FE "F#dim"F2A4|"G"G^FGA G=FDB,|"C"C6:|
